X:1
T:Title
%%score [ ( 1 2 ) ( 3 4 ) ] { ( 5 6 ) | 7 }
L:1/8
Q:1/4=120
M:4/4
K:Bb
V:1 treble nm="Midi_74"
V:2 treble 
V:3 bass nm="Midi_74"
V:4 bass 
V:5 treble nm="Org."
V:6 treble 
V:7 bass 
V:1
 d8 | e4 f4 | B8 || d8 | c4 A4 | B4 G4 | F8 || B8 | c4 d4 | G8 || e8 | d4 B4 | %12
"^William Henry Havergal\n(1793-1870)" c4 A4 | B8 |] %14
V:2
 F8 | F4 F4 | E8 || F8 | G4 F4 | G4 =E4 | F8 || (D6 G2) | (G2 ^F2) =F4 | E8 || G8 | A4 G4 | %12
 G4 (F2 E2) | D8 |] %14
V:3
 B,8 | (B,2 A,2) _A,4 | G,8 || =A,8 | (G,2 C2) C4 | D4 B,4 | A,8 || D8 | E4 D4 | C8 || B,8 | %11
 (A,2 D2) D4 | E4 C4 | B,8 |] %14
V:4
 B,,8 | C,4 D,4 | E,8 || D,8 | E,4 F,4 | B,,4 C,4 | F,8 || G,8 | A,4 =B,4 | C8 || E,8 | F,4 G,4 | %12
 C,4 F,4 | B,,8 |] %14
V:5
 d8 | e4 f4 | B8 || d8 | c4 A4 | B4 G4 | F8 || B8 | c4 d4 | G8 || e8 | d4 B4 | c4 [CA]4 | [B,B]8 |] %14
V:6
 [FB]8 | B2 A2 [F_A]4 | [EG]8 || [FA]8 | [CG]4 [CF]4 | [B,G]4 [B,=E]4 | [A,F]8 || [DG]8 | %8
 G2 ^F2 =F4 | E8 || [GB]8 | [DA]4 [DG]4 | [EG]4 F2 E2 | D8 |] %14
V:7
 B,,8 | C,4 D,4 | E,8 || D,8 | E,4 F,4 | B,,4 C,4 | F,8 || G,8 | A,4 =B,4 | C8 || E,8 | F,4 G,4 | %12
 C,4 F,4 | B,,8 |] %14

